X: 7795
T: Come O'er The Stream, Charlie
R: waltz
M: 3/4
K: Gmajor
D2|G3 Bd2|d2B2e2|d2B2g2|d2B2A2|
G3 Bd2|d2B2G2|D2B2A2|G4D2|
G3 Bd2|d2B2e2|d2B2g2|d2B2A2|
G3 Bd2|d2B2G2|D2B2A2|G4d2||
g3 fg2|e2f2g2|e2a2g2|f2e2d2|
g3 fg2|e2d2c2|B2A2G2|d4B2|
c2e2c2|B2d2g2|d2B2G2|B2A2d2|
g3 fe2|d2B2G2|D2B2A2|G4||

